libs/ui/packages/crypto-icons/src/svg/TEN.svg

<svg width="24" height="24" viewBox="0 0 24 24" fill="none">
<path d="M20.2275 12.6503C20.0872 14.652 19.2885 16.3785 17.8312 17.8312C17.4637 18.1995 17.079 18.5258 16.6763 18.81C16.6586 18.7833 16.6393 18.7578 16.6185 18.7335L20.136 12.6398C20.166 12.645 20.196 12.6488 20.2275 12.6503ZM16.2997 19.0613C15.0322 19.854 13.5983 20.25 12 20.25C10.4722 20.25 9.0945 19.8878 7.86675 19.164C8.05125 19.2727 8.23875 19.3725 8.43 19.464C8.44893 19.433 8.465 19.4004 8.478 19.3665H15.522C15.5347 19.4004 15.5505 19.433 15.5693 19.464C15.819 19.344 16.062 19.209 16.2997 19.0613ZM7.32375 18.8137C6.90873 18.5203 6.51979 18.1916 6.16125 17.8312C4.7085 16.3785 3.91275 14.6513 3.7725 12.6503C3.80297 12.6491 3.83331 12.6456 3.86325 12.6398L7.3815 18.7335C7.36001 18.7586 7.34069 18.7854 7.32375 18.8137ZM3.75 11.8725C3.78 9.64725 4.5825 7.743 6.1605 6.1605C7.77375 4.554 9.72 3.75 12 3.75C14.28 3.75 16.224 4.554 17.8312 6.16125C19.4362 7.76625 20.2425 9.70275 20.25 11.9692C20.2497 11.7673 20.2422 11.5654 20.2275 11.364C20.197 11.3654 20.1667 11.3692 20.1368 11.3752L16.6222 5.27025C16.6439 5.24489 16.6635 5.2178 16.6807 5.18925C16.3302 4.94101 15.9597 4.72226 15.573 4.53525C15.5527 4.56909 15.5357 4.60475 15.522 4.64175H8.478C8.46438 4.60473 8.4473 4.56907 8.427 4.53525C8.04375 4.71975 7.67475 4.9365 7.32 5.18625C7.33725 5.21625 7.3575 5.24625 7.3815 5.27325L3.86325 11.3752C3.83309 11.3691 3.8025 11.3654 3.77175 11.364C3.7605 11.532 3.753 11.7015 3.75075 11.8733L3.75 11.8725ZM19.7595 11.5935C19.7091 11.6504 19.6695 11.7159 19.6425 11.787H16.7347C16.701 11.699 16.6485 11.6195 16.581 11.5538C16.5151 11.4861 16.4352 11.4337 16.347 11.4V5.679L19.7595 11.5942V11.5935ZM19.6425 12.2257C19.6695 12.2968 19.7091 12.3623 19.7595 12.4193L16.347 18.3278V12.6127C16.4352 12.5793 16.515 12.5271 16.581 12.4598C16.6486 12.3938 16.701 12.314 16.7347 12.2257H19.6425ZM4.3575 11.7878C4.33052 11.7167 4.29088 11.6511 4.2405 11.5942L7.653 5.679V11.4008C7.56477 11.4344 7.48493 11.4869 7.419 11.5545C7.35149 11.6202 7.29904 11.6998 7.26525 11.7878H4.3575ZM8.47125 5.09475C8.47426 5.09002 8.47677 5.08499 8.47875 5.07975H15.5228C15.5501 5.15064 15.5897 5.21614 15.6398 5.27325L13.4872 8.99325C13.3394 8.96413 13.1861 8.99 13.056 9.066L8.47125 5.09475ZM8.47875 11.7878C8.44498 11.6998 8.39253 11.6202 8.325 11.5545C8.25906 11.4869 8.17922 11.4344 8.091 11.4008V5.679L11.5073 11.5868C11.4579 11.6464 11.4197 11.7145 11.3947 11.7878H8.47875ZM13.9777 9.855C14.0047 9.78126 14.0182 9.70326 14.0175 9.62475C14.0192 9.4736 13.9659 9.32698 13.8675 9.21225L15.9105 5.67975V11.4C15.8775 11.412 15.8457 11.4268 15.8153 11.4443L13.9777 9.85425V9.855ZM12.7755 9.39525C12.7458 9.46809 12.7307 9.54608 12.7313 9.62475C12.7313 9.78225 12.7823 9.92025 12.885 10.038L12.114 11.3677C12.0392 11.3529 11.9623 11.3529 11.8875 11.3677L8.712 5.88L12.7748 9.39525H12.7755ZM12.6105 11.7878C12.584 11.7146 12.5446 11.6468 12.4943 11.5875L13.2615 10.257C13.4093 10.2861 13.5627 10.2603 13.6927 10.1843L15.5303 11.7735C15.5282 11.7787 15.5257 11.7837 15.5228 11.7885H12.6105V11.7878ZM15.6765 12.4605C15.7424 12.5281 15.8223 12.5806 15.9105 12.6143V18.3278L12.4943 12.4095C12.541 12.3553 12.5781 12.2934 12.6038 12.2265H15.5228C15.5565 12.3147 15.6089 12.3945 15.6765 12.4605ZM11.895 12.636C11.9678 12.6457 12.0416 12.6445 12.114 12.6322L15.2887 18.1305L11.2297 14.6198C11.257 14.5461 11.2708 14.4681 11.2703 14.3895C11.2721 14.2383 11.2187 14.0917 11.1202 13.977L11.895 12.636ZM15.5303 18.9127C15.5281 18.9179 15.5256 18.923 15.5228 18.9277H8.47875C8.45288 18.8568 8.41453 18.791 8.3655 18.7335L10.5135 15.021C10.6613 15.0502 10.8147 15.0243 10.9448 14.9482L15.5303 18.9127ZM10.74 13.7572C10.5922 13.728 10.4388 13.7539 10.3088 13.83L8.47125 12.2415C8.4742 12.2367 8.47671 12.2317 8.47875 12.2265H11.3977C11.4232 12.294 11.4607 12.3577 11.511 12.4163L10.74 13.7572ZM10.0275 14.1593C9.99791 14.2324 9.98313 14.3106 9.984 14.3895C9.984 14.547 10.035 14.6842 10.1378 14.802L8.091 18.3315V12.6135C8.12394 12.6018 8.15581 12.5872 8.18625 12.57L10.0275 14.16V14.1593ZM7.419 12.4605C7.48496 12.5281 7.56479 12.5805 7.653 12.6143V18.3278L4.2405 12.42C4.29086 12.3631 4.3305 12.2975 4.3575 12.2265H7.26525C7.29896 12.3147 7.35142 12.3945 7.419 12.4605Z" fill="#0899CD"/>
</svg>

<svg width="24" height="24" viewBox="0 0 24 24" fill="none"><path fill="#0899cd" d="M20.228 12.65q-.21 3.002-2.397 5.181a9 9 0 0 1-1.155.979 1 1 0 0 0-.057-.076l3.517-6.094q.045.008.091.01M16.3 19.061q-1.902 1.19-4.3 1.189-2.291 0-4.133-1.086a7 7 0 0 0 .563.3 1 1 0 0 0 .048-.098h7.044a1 1 0 0 0 .047.098q.375-.18.73-.403m-8.976-.247a9 9 0 0 1-1.163-.983q-2.178-2.18-2.388-5.18a1 1 0 0 0 .09-.011l3.519 6.093a1 1 0 0 0-.058.08m-3.573-6.94q.044-3.339 2.41-5.712Q8.58 3.75 12 3.75t5.831 2.411Q20.24 8.57 20.25 11.97q0-.303-.023-.605a1 1 0 0 0-.09.011L16.622 5.27a1 1 0 0 0 .059-.08 8 8 0 0 0-1.108-.655.6.6 0 0 0-.051.107H8.478a.6.6 0 0 0-.051-.107 8 8 0 0 0-1.107.651q.025.046.061.087l-3.518 6.102a1 1 0 0 0-.091-.011 10 10 0 0 0-.021.51zm16.01-.28a.6.6 0 0 0-.118.194h-2.907a.65.65 0 0 0-.154-.233.65.65 0 0 0-.234-.154V5.679l3.412 5.915m-.118.633a.6.6 0 0 0 .117.193l-3.412 5.909v-5.715a.65.65 0 0 0 .234-.153.65.65 0 0 0 .154-.234zm-15.284-.438a.6.6 0 0 0-.117-.194L7.653 5.68v5.722a.65.65 0 0 0-.234.154.65.65 0 0 0-.154.233zM8.47 5.095l.008-.015h7.044q.041.106.117.193l-2.153 3.72a.62.62 0 0 0-.431.073zm.008 6.693a.65.65 0 0 0-.154-.233.65.65 0 0 0-.234-.154V5.679l3.416 5.908a.6.6 0 0 0-.112.2zm5.499-1.933a.7.7 0 0 0 .04-.23.62.62 0 0 0-.15-.413L15.91 5.68v5.72a1 1 0 0 0-.096.044zm-1.203-.46a.6.6 0 0 0-.044.23.6.6 0 0 0 .154.413l-.771 1.33a.6.6 0 0 0-.227 0L8.712 5.88zm-.165 2.393a.7.7 0 0 0-.116-.2l.768-1.331c.147.03.3.003.43-.073l1.838 1.59-.007.015zm3.067.672q.099.102.234.154v5.714l-3.417-5.918a.6.6 0 0 0 .11-.184h2.919a.65.65 0 0 0 .154.234m-3.782.176a.7.7 0 0 0 .219-.004l3.175 5.499-4.06-3.511a.65.65 0 0 0-.109-.643zm3.635 6.277-.007.015H8.479a.6.6 0 0 0-.113-.195l2.148-3.712c.147.03.3.003.43-.073zm-4.79-5.156a.62.62 0 0 0-.431.073L8.47 12.242l.008-.016h2.919a.6.6 0 0 0 .113.19zm-.713.402a.6.6 0 0 0-.043.23q0 .236.154.413l-2.047 3.53v-5.719a1 1 0 0 0 .095-.043zM7.42 12.46q.1.102.234.154v5.714L4.241 12.42a.6.6 0 0 0 .117-.194h2.907a.65.65 0 0 0 .154.234"/></svg>
